!!!SOCIAL_FUNCTION:	songs used in the treatment of the sick
!!!PDT:	1929
!!!OTL: No_55_A_Painted_Snake_Comes_Out.krn
!!!REG: Southwest
!!!LANG: Non-Tone
!!!LING_GROUP: Uto-Aztecan
**kern
*staff1
*clefF4
*k[b-e-]
*M2/4
8D\L
8D\J
=1
4G\
8.G\L
32A\LL
32A\JJJ
=2
4B-\
8.A\L
16G\Jk
=3||
*M3/4
4A\
8.G\L
16A\Jk
12A\L
12G\
12A\J
=4||
*M2/4
(4.A\
16G\)
16r
=5
4B-\
8.A\L
16B-\Jk
=6
8.A\L
16G\Jk
4G\
=7||
*M3/4
16A\LK
8.G\J
8.G\L
16G\Jk
8.G\L
32G\LL
32G\JJJ
=8||
*M2/4
4G\
4r
=9
16A\LK
8.G\J
8G\L
8G\J
=10
4G\
4G\
=11
4E-\
16E-\
16r
8G\
=12
8G\L
8G\J
[4G\
=13
2G\]
==
*-
